frontend/public/svg/hand gestures/2-scroll-up-1.svg

<svg width="113" height="153" viewBox="0 0 113 153" fill="none" xmlns="http://www.w3.org/2000/svg">
<g clip-path="url(#clip0)">
<path d="M109.565 74.9414C108.105 71.0854 105.079 68.636 100.815 67.8562C99.0838 67.4959 97.292 67.5484 95.5849 68.0098C93.8777 68.4712 92.3038 69.3284 90.9898 70.5118C86.8155 63.7706 85.0329 62.8458 75.3086 62.2203C75.3086 62.0306 75.3119 61.839 75.3139 61.6467C75.3217 60.9904 75.329 60.3051 75.302 59.6245C75.1983 56.9524 75.1012 54.2802 75.0106 51.608C74.7744 44.8733 74.5295 37.9089 74.1193 31.0679C73.698 24.0333 71.876 18.2752 68.5496 13.4662C65.979 9.74941 61.8618 8.61591 57.8043 10.5088C55.4381 11.5366 53.5229 13.3848 52.4116 15.7129C51.5899 17.4765 50.9022 19.2512 50.1744 21.131C49.9407 21.7343 49.7042 22.3401 49.4648 22.9484C49.3545 22.7666 49.2462 22.5854 49.1366 22.4049C48.6457 21.5832 48.1818 20.8074 47.641 20.0559C44.8883 16.2275 41.0774 15.4353 36.9031 17.8243C32.9729 20.0775 32.0424 23.9591 31.6709 27.0885C31.3848 29.494 31.3393 31.9612 31.2953 34.347L31.2732 35.5153C31.2338 37.3819 31.1915 39.2485 31.1469 41.1151C30.9992 47.544 30.8459 54.192 30.8485 60.7318C30.8485 65.5926 30.9994 70.3628 31.1569 75.4133C31.219 77.3968 31.2785 79.3999 31.3354 81.4221L31.2165 81.323C30.7708 80.9515 30.3865 80.6299 29.9743 80.3273C23.321 75.4382 16.1911 73.6983 8.78562 75.1534C7.16172 75.4284 5.63535 76.1149 4.35182 77.1474C3.06828 78.1791 2.07039 79.5233 1.4531 81.0499C0.848685 82.6704 0.662412 84.417 0.911813 86.1287C1.16121 87.8398 1.83812 89.4609 2.87986 90.8412C3.94309 92.2057 5.15188 93.4508 6.4846 94.5534L6.92814 94.9472C11.8139 99.1924 15.8809 104.297 18.9275 110.007C23.5343 118.881 28.3622 127.585 33.2762 135.878C34.9346 138.462 37.1184 140.668 39.6854 142.353C43.2182 144.761 46.9708 146.827 50.8935 148.527C55.8954 150.727 61.3018 151.86 66.7664 151.851C72.6498 151.772 78.4741 150.667 83.9775 148.587C88.9152 146.711 93.3966 143.807 97.1253 140.066C100.854 136.325 103.744 131.833 105.604 126.89C110.627 113.841 112.608 99.5285 111.661 83.1364C111.503 80.3824 110.562 77.57 109.565 74.9414ZM36.9319 64.1119C36.8918 62.4212 36.8138 60.7042 36.739 59.043C36.6077 56.0783 36.4654 53.0126 36.5421 50.0079C36.7213 42.6293 37.1644 35.1313 37.5924 27.8794L37.6132 27.5171C37.7707 24.8485 38.3819 22.2901 41.7259 21.6048C43.796 23.0488 45.0948 25.346 45.6941 28.6362C46.5571 33.246 47.1587 37.901 47.4958 42.5788C47.9408 49.1198 48.2775 55.7797 48.6024 62.2203C48.7805 65.7435 48.9643 69.266 49.1543 72.7873C49.2048 73.697 49.3061 74.7097 49.8692 75.2158C50.6931 75.9922 51.7487 76.4759 52.8743 76.5941C53.159 76.6131 53.4447 76.5724 53.7124 76.4733C53.9801 76.3748 54.224 76.2206 54.428 76.0211C54.6801 75.7487 54.8745 75.4277 54.9997 75.0779C55.125 74.7288 55.1786 74.3573 55.1571 73.9864C55.1479 73.0991 55.1657 72.2084 55.1834 71.3191C55.2494 69.6198 55.2208 67.9179 55.0975 66.2214C53.9285 53.5114 54.7694 41.312 55.9955 26.6842C56.1825 24.4376 57.0172 22.1837 57.8232 20.0047L58.1587 19.0943C58.6231 18.1414 59.3163 17.3186 60.1767 16.6994C60.862 16.1415 61.3746 15.917 61.7875 15.9905C62.22 16.068 62.6545 16.4952 63.1527 17.336C66.0058 22.1463 66.7014 27.6038 67.13 32.3412C68.125 43.329 68.1348 55.3787 67.1608 70.2716C67.1077 71.0926 67.0059 71.9301 66.9068 72.74C66.7788 73.7902 66.6443 74.8791 66.6154 75.96C66.5747 77.358 66.9239 78.3668 67.6518 78.9595C68.3797 79.5522 69.4652 79.6953 70.8527 79.3658C71.8635 79.163 72.783 78.6432 73.4781 77.8818C74.1725 77.1204 74.6057 76.1569 74.7146 75.1317C74.8728 74.1472 74.9601 73.1463 75.0428 72.1782C75.1025 71.4864 75.1622 70.7947 75.2469 70.1068C75.4852 68.1765 76.5182 67.2616 78.4978 67.2275C80.0638 67.2353 81.5839 67.7578 82.823 68.7147C84.0628 69.6717 84.9528 71.0099 85.3565 72.5228C85.621 73.7009 85.7838 74.8994 85.8435 76.1051C85.8789 76.558 85.9137 77.0102 85.9603 77.4591C85.9958 77.8155 86.0017 78.1922 86.0069 78.5572C85.9899 79.2168 86.0561 79.8764 86.2038 80.5196C86.3357 81.0801 86.6213 81.5921 87.0295 81.9984C87.4377 82.4046 87.9516 82.6882 88.5122 82.8168C89.0654 82.9212 89.6371 82.868 90.1622 82.6645C90.6866 82.4604 91.1441 82.1132 91.4814 81.663C92.1299 80.8143 92.7101 79.9164 93.2168 78.9766C93.5233 78.4423 93.8397 77.8897 94.177 77.3718C95.4168 75.4645 96.9612 73.4496 99.7277 73.7029C102.474 73.9543 103.369 76.2823 104.24 78.5506C105.923 83.04 106.58 87.8489 106.162 92.6251L106.122 93.1535C105.505 101.235 104.867 109.592 102.345 117.417C100.848 122.311 98.6841 126.976 95.913 131.279C92.6445 136.164 87.5231 139.648 80.2574 141.931C67.2179 146.026 55.0082 143.877 42.9303 135.357C41.7531 134.568 40.7265 133.574 39.8992 132.423C37.8624 129.486 35.9758 126.448 34.2463 123.32C31.6505 118.507 29.1178 113.51 26.5016 108.044C22.3667 99.4011 17.1814 92.736 10.6476 87.6684C10.482 87.5424 10.3258 87.4039 10.1803 87.255C10.0176 87.0856 9.8523 86.9176 9.68165 86.7496C8.35322 85.4179 7.09868 84.1603 7.90337 82.1506C8.76055 80.0096 10.9024 79.8101 13.023 79.7878H13.1701C19.7171 79.7878 29.2576 84.0245 30.3839 92.0909C30.6759 94.1826 31.8769 95.3725 33.6871 95.3725H33.7903C35.5709 95.3286 36.7523 94.1865 37.2078 92.0712C37.3934 91.1707 37.4749 90.2518 37.451 89.3323C37.2673 79.4386 37.1038 71.4241 36.9319 64.1086V64.1119Z" fill="black"/>
<path d="M15.7365 49.5845C16.0234 49.9035 16.3711 50.1621 16.7591 50.3452C17.1471 50.5283 17.5679 50.6323 17.9965 50.651C18.0517 50.651 18.108 50.651 18.1638 50.6451C18.654 50.5837 19.1252 50.417 19.545 50.1564C19.9649 49.8959 20.3235 49.5477 20.5962 49.1356C22.8776 46.1466 25.102 43.0395 27.2548 40.0348L28.7104 38.0034C29.1488 37.5267 29.4013 36.9082 29.4219 36.2608C29.2309 34.9153 28.8747 34.1067 28.3325 33.7904C27.6329 33.3815 26.3575 33.5863 25.5758 34.0096C25.1045 34.3364 24.7342 34.7887 24.5067 35.315C24.3874 35.5417 24.2546 35.7608 24.1089 35.9714C23.1481 37.2985 22.1806 38.6217 21.0609 40.1516L19.9995 41.6041C19.9581 41.2247 19.9189 40.8762 19.8822 40.5539C19.768 39.5517 19.6779 38.7608 19.6556 37.9877C19.5038 32.8682 19.3576 27.7488 19.2172 22.6293C19.0544 16.7788 18.887 10.9284 18.715 5.07825C18.7436 4.03492 18.5653 2.99627 18.1901 2.02234C17.9787 1.64116 17.6749 1.31909 17.3068 1.08564C16.9388 0.85218 16.5182 0.714787 16.0832 0.686035C15.2451 0.744449 14.466 1.71911 14.1719 2.22646C13.9195 2.78556 13.8132 3.39965 13.8633 4.01104C13.8633 4.12853 13.8634 4.2447 13.8588 4.35694L13.7441 8.67298C13.6043 13.8626 13.4591 19.2289 13.3797 24.5091C13.3266 27.9647 13.339 31.4006 13.3522 35.0381C13.3574 36.4656 13.3627 37.9187 13.364 39.4073C12.9117 39.0312 12.4843 38.6709 12.0734 38.3257C10.7876 37.244 9.67778 36.3107 8.50424 35.4378C8.20955 35.197 7.86838 35.0199 7.50182 34.9176C7.13527 34.8152 6.75153 34.7899 6.3747 34.8431C6.09975 34.9018 5.84046 35.019 5.61485 35.1867C5.38924 35.3544 5.20248 35.5688 5.06715 35.8152C4.88102 36.2611 4.81088 36.7469 4.86333 37.2272C4.91578 37.7075 5.08914 38.1668 5.36712 38.562C9.42463 43.0703 12.6215 46.4715 15.7365 49.5845Z" fill="black"/>
</g>
<defs>
<clipPath id="clip0">
<rect width="111.577" height="151.614" fill="white" transform="translate(0.690796 0.605225)"/>
</clipPath>
</defs>
</svg>

<svg xmlns="http://www.w3.org/2000/svg" width="113" height="153" fill="none" viewBox="0 0 113 153"><g fill="#000" clip-path="url(#a)"><path d="M109.565 74.941c-1.46-3.856-4.486-6.305-8.75-7.085a11.26 11.26 0 0 0-9.825 2.656c-4.174-6.741-5.957-7.666-15.681-8.292q.001-.285.005-.573c.008-.657.015-1.342-.012-2.023q-.155-4.008-.291-8.016c-.237-6.735-.481-13.7-.892-20.54-.421-7.035-2.243-12.793-5.57-17.602-2.57-3.717-6.687-4.85-10.745-2.957a10.7 10.7 0 0 0-5.392 5.204c-.822 1.764-1.51 3.538-2.238 5.418q-.35.905-.71 1.817l-.327-.543c-.491-.822-.955-1.598-1.496-2.35-2.753-3.828-6.564-4.62-10.738-2.23-3.93 2.253-4.86 6.134-5.232 9.264-.286 2.405-.332 4.872-.376 7.258l-.022 1.168q-.06 2.8-.126 5.6c-.148 6.429-.301 13.077-.298 19.617 0 4.86.15 9.63.308 14.681q.093 2.976.178 6.01l-.119-.1c-.445-.371-.83-.693-1.242-.996-6.653-4.889-13.783-6.629-21.188-5.174a9.64 9.64 0 0 0-7.333 5.897 10.29 10.29 0 0 0 1.427 9.79 23.8 23.8 0 0 0 3.605 3.712l.443.394a53 53 0 0 1 12 15.06 530 530 0 0 0 14.348 25.871 21.9 21.9 0 0 0 6.41 6.475 67.7 67.7 0 0 0 11.208 6.174 39.3 39.3 0 0 0 15.872 3.324 50.6 50.6 0 0 0 17.212-3.264 37.23 37.23 0 0 0 21.626-21.697c5.023-13.049 7.004-27.362 6.057-43.754-.158-2.754-1.099-5.566-2.096-8.195M36.932 64.11c-.04-1.69-.118-3.407-.193-5.068-.131-2.965-.274-6.03-.197-9.035.18-7.379.622-14.877 1.05-22.129l.021-.362c.158-2.668.769-5.227 4.113-5.912 2.07 1.444 3.369 3.741 3.968 7.031.863 4.61 1.465 9.265 1.802 13.943.445 6.54.782 13.2 1.106 19.641q.268 5.285.552 10.567c.05.91.152 1.923.715 2.429a5.17 5.17 0 0 0 3.005 1.378 2.03 2.03 0 0 0 1.554-.573 2.76 2.76 0 0 0 .73-2.035c-.01-.887.008-1.778.025-2.667q.1-2.551-.086-5.098c-1.169-12.71-.328-24.909.898-39.537.188-2.246 1.022-4.5 1.828-6.68l.336-.91a6.4 6.4 0 0 1 2.018-2.395c.685-.558 1.198-.782 1.61-.709.433.078.867.505 1.366 1.346 2.853 4.81 3.548 10.268 3.977 15.005.995 10.988 1.005 23.038.03 37.93a44 44 0 0 1-.253 2.469c-.128 1.05-.263 2.14-.292 3.22-.04 1.398.309 2.407 1.037 3 .728.592 1.813.735 3.2.406a4.84 4.84 0 0 0 3.862-4.234c.159-.985.246-1.986.329-2.954.06-.692.12-1.383.204-2.071.238-1.93 1.271-2.845 3.25-2.88a7.135 7.135 0 0 1 6.86 5.296c.264 1.178.427 2.376.487 3.582.035.453.07.905.116 1.354.036.356.042.733.047 1.098a8 8 0 0 0 .197 1.963 3.08 3.08 0 0 0 2.308 2.297 3.02 3.02 0 0 0 2.97-1.154 20 20 0 0 0 1.735-2.686c.306-.535.623-1.087.96-1.605 1.24-1.907 2.784-3.922 5.55-3.67 2.747.252 3.642 2.58 4.513 4.849a32.1 32.1 0 0 1 1.922 14.074l-.04.528c-.617 8.082-1.255 16.439-3.777 24.264a55.7 55.7 0 0 1-6.432 13.862c-3.269 4.885-8.39 8.369-15.656 10.652-13.04 4.095-25.249 1.946-37.327-6.574a11.9 11.9 0 0 1-3.03-2.934 106 106 0 0 1-5.654-9.103 353 353 0 0 1-7.744-15.276c-4.135-8.643-9.32-15.308-15.854-20.376a4 4 0 0 1-.468-.413q-.243-.254-.498-.505c-1.329-1.332-2.583-2.59-1.779-4.6.858-2.14 3-2.34 5.12-2.362h.147c6.547 0 16.088 4.237 17.214 12.303.292 2.092 1.493 3.282 3.303 3.282h.103c1.78-.044 2.962-1.187 3.418-3.302.185-.9.267-1.82.243-2.739-.184-9.893-.347-17.908-.52-25.223z"/><path d="M15.737 49.585a3.23 3.23 0 0 0 2.26 1.066q.083.001.167-.006a3.43 3.43 0 0 0 2.432-1.51c2.282-2.988 4.506-6.096 6.659-9.1l1.455-2.032a2.7 2.7 0 0 0 .712-1.742c-.191-1.346-.547-2.154-1.09-2.47-.7-.41-1.974-.205-2.756.219a3.1 3.1 0 0 0-1.07 1.305q-.178.34-.397.656c-.96 1.328-1.928 2.65-3.048 4.18L20 41.605l-.118-1.05c-.114-1.002-.204-1.793-.226-2.566q-.228-7.68-.439-15.359-.244-8.775-.502-17.55a7.9 7.9 0 0 0-.525-3.057A2.6 2.6 0 0 0 16.083.686c-.838.058-1.617 1.033-1.911 1.54a3.6 3.6 0 0 0-.309 1.785q.001.178-.004.346l-.115 4.316c-.14 5.19-.285 10.556-.364 15.836-.053 3.456-.041 6.892-.028 10.53.005 1.427.01 2.88.012 4.368q-.677-.564-1.29-1.081c-1.286-1.082-2.396-2.015-3.57-2.888a2.75 2.75 0 0 0-2.13-.595 1.96 1.96 0 0 0-1.307.972 2.86 2.86 0 0 0 .3 2.747c4.058 4.508 7.254 7.91 10.37 11.023"/></g><defs><clipPath id="a"><path fill="#fff" d="M.69.605h111.578V152.22H.69z"/></clipPath></defs></svg>
